X: 1
T: Bratach Bana
R: march
Z: 1997 by John Chambers <jc:trillian.mit.edu>
M: C|
L: 1/4
K: D
d \
| "D"Ad da | f>e f/e/d | Ad da | f>e f/e/d \
| "G"g2 ab | "D"a>g fg | "A7"aa ef/e/ | "D"dA "A7"BA ||
||"D"f>e fA | "G"BA d>B | "D"AA "Bm"BA | "Em"fe "A7"eA \
| "D"f>e fA | "G"BA d>e | "D"f<a "A7"ef/e/ | "D"d2- d |]

